!!!OTL: Psallite senes
**kern
*staff1
=--
*clefC1
*k[b-]
1a
2a
2f
=-
2b-
2a
0r
1r
2cc
=-
2a
2b-
2g
2a
=-
2f
2f
2e
2f
=-
!!linebreak:original
2f
2f
2g
2a
=-
2a
2b-
2b-
2a
=-
2cc
2cc
2b-
2cc
=-
2b-
2g
2a
2f
=-
2f
2e
2f
2f
!!linebreak:original
=-
2g
2f
2e
2f
=-
2g
2f
2e
2f
=-
2g
2f
2e
2f
=-
2g
2a
1b-
=-
2a
2f
2f
2e
=-
0f
=-=
*-
!!title: @{OTL}, @{GTL}, ed. @{ENC}
!!!pag:
!!!GTL: Hymnbook C
!!!EFL: 
!!!YEM: Creative Commons CC/BY/NC/SA 4.0
!!!ENC: Marcin Konik
!!!END: 2015-0m-dd
!!!EED: Marcin Konik
!!!EEV: 
!!!ONB: Encoded in vim by Marcin Konik
!!!CharacterEncoding: utf-8
!!!RDF**kern: l=long note in original notation
!!!RDF**kern: i=editorial accidental
!!muse2ps: z14jc180F
!!!COM: Anonim
!!!CDT: [?]
!!!TXO: Polish
!!!ODT: 
!!!GTL: Hymnbook C
!!!ARL: Opactwo św. Wojciecha, Staniątki 
!!!voices:	1
